libs/ui/packages/crypto-icons/src/svg/MED.svg

<svg width="24" height="24" viewBox="0 0 24 24" fill="none">
<path d="M18 9.04575V15.732L16.098 16.842V12.3795L12 14.832L7.902 12.3773V16.842L6 15.732V9.045L12 12.6488L18 9.045V9.04575ZM12.0225 17.3835L13.7775 16.3342L15.51 17.3835L12.0225 19.5L8.5365 17.3835L10.269 16.3342L12.0233 17.3835H12.0225ZM15.4875 6.6165L13.7543 7.66575L12 6.6165L10.2458 7.66575L8.51325 6.6165L12 4.5L15.4875 6.6165Z" fill="#00B0FF"/>
</svg>

<svg width="24" height="24" viewBox="0 0 24 24" fill="none"><path fill="#00b0ff" d="M18 9.046v6.686l-1.902 1.11V12.38L12 14.832l-4.098-2.455v4.465L6 15.732V9.045l6 3.604zm-5.977 8.338 1.755-1.05 1.732 1.05-3.487 2.116-3.486-2.116 1.732-1.05zm3.465-10.767-1.734 1.049L12 6.616l-1.754 1.05-1.733-1.05L12 4.5z"/></svg>
